images/brands/pivot.svg

<svg fill="none" height="180" viewBox="0 0 520 180" width="520" xmlns="http://www.w3.org/2000/svg"><g fill="#000"><path d="m167.117 56-21.786 21.75h-72.331v21.75h50.544l-21.786 21.75h-28.758v21.75h6.9716l21.7864-21.75h72.331v-21.75h-50.545l21.787-21.75h28.758v-21.75z"/><path d="m269.609 77.402v43.848h11.765v-43.848z"/><path d="m269.452 71.7644h12v-11.9799h-12z"/><path clip-rule="evenodd" d="m239.971 122.894c12.628 0 21.961-9.239 21.961-23.2548 0-13.8591-9.412-23.5683-21.961-23.5683-7.529 0-13.803 3.5235-17.96 10.3356v-9.0045h-11.765v60.683h11.765v-24.665c3.608 6.029 10.274 9.474 17.96 9.474zm-18.352-22.863v-.7833c0-8.2998 5.647-13.8591 14.117-13.8591 8.549 0 14.118 5.6376 14.118 14.094s-5.569 14.0944-14.118 14.0944c-8.392 0-14.117-5.403-14.117-13.546z" fill-rule="evenodd"/><path d="m307.523 121.25-19.764-43.848h13.411l13.648 33.512 13.568-33.512 13.098.0783-19.765 43.7697z"/><path clip-rule="evenodd" d="m369.284 122.894c16 0 26.275-9.396 26.275-23.3331 0-14.1723-10.275-23.49-26.275-23.49-15.921 0-26.274 9.3177-26.274 23.49 0 13.9371 10.274 23.3331 26.274 23.3331zm-14.196-23.3331c0-8.613 5.804-14.094 14.196-14.094s14.196 5.481 14.196 14.094c0 8.4561-5.804 13.8591-14.196 13.8591s-14.196-5.403-14.196-13.8591z" fill-rule="evenodd"/><path d="m428.283 122.894c-11.922 0-19.686-6.577-19.686-15.19v-21.2975h-9.491v-9.0045h9.726v-6.8904l11.529-7.9866v14.877h20.942v9.0045h-20.942v17.3825c0 6.186 4.079 9.396 11.53 9.396 2.666 0 6.667-.391 11.293-2.114l-1.569 9.083c-4.314 1.801-8.783 2.74-13.332 2.74z"/></g></svg>

<svg width="520" height="180" viewBox="0 0 520 180" fill="none" xmlns="http://www.w3.org/2000/svg">
<path d="M167.117 56L145.331 77.75H73V99.5H123.544L101.758 121.25H73V143H79.9716L101.758 121.25H174.089V99.5H123.544L145.331 77.75H174.089V56H167.117Z" fill="black"/>
<path d="M269.609 77.402V121.25H281.374V77.402H269.609Z" fill="black"/>
<path d="M269.452 71.7644H281.452V59.7845H269.452V71.7644Z" fill="black"/>
<path fill-rule="evenodd" clip-rule="evenodd" d="M239.971 122.894C252.599 122.894 261.932 113.655 261.932 99.6392C261.932 85.7801 252.52 76.0709 239.971 76.0709C232.442 76.0709 226.168 79.5944 222.011 86.4065V77.402H210.246V138.085H222.011V113.42C225.619 119.449 232.285 122.894 239.971 122.894ZM221.619 100.031V99.2477C221.619 90.9479 227.266 85.3886 235.736 85.3886C244.285 85.3886 249.854 91.0262 249.854 99.4826C249.854 107.939 244.285 113.577 235.736 113.577C227.344 113.577 221.619 108.174 221.619 100.031Z" fill="black"/>
<path d="M307.523 121.25L287.759 77.402H301.17L314.818 110.914L328.386 77.402L341.484 77.4803L321.719 121.25H307.523Z" fill="black"/>
<path fill-rule="evenodd" clip-rule="evenodd" d="M369.284 122.894C385.284 122.894 395.559 113.498 395.559 99.5609C395.559 85.3886 385.284 76.0709 369.284 76.0709C353.363 76.0709 343.01 85.3886 343.01 99.5609C343.01 113.498 353.284 122.894 369.284 122.894ZM355.088 99.5609C355.088 90.9479 360.892 85.4669 369.284 85.4669C377.676 85.4669 383.48 90.9479 383.48 99.5609C383.48 108.017 377.676 113.42 369.284 113.42C360.892 113.42 355.088 108.017 355.088 99.5609Z" fill="black"/>
<path d="M428.283 122.894C416.361 122.894 408.597 116.317 408.597 107.704V86.4065H399.106V77.402H408.832V70.5116L420.361 62.525V77.402H441.303V86.4065H420.361V103.789C420.361 109.975 424.44 113.185 431.891 113.185C434.557 113.185 438.558 112.794 443.184 111.071L441.615 120.154C437.301 121.955 432.832 122.894 428.283 122.894Z" fill="black"/>
</svg>
